la/sort-alpha-up-alt-solid.svg

<svg xmlns="http://www.w3.org/2000/svg" viewBox="0 0 32 32" height="1em" width="1em">
  <path d="M 5 5 L 5 7 L 10.560547 7 L 5.2792969 12.279297 L 5 12.589844 L 5 15 L 13 15 L 13 13 L 7.4394531 13 L 12.720703 7.7207031 L 13 7.4101562 L 13 5 L 5 5 z M 23 5.5 L 22.279297 6.1894531 L 18 10.5 L 19.410156 11.910156 L 22 9.3105469 L 22 28 L 24 28 L 24 9.3105469 L 26.589844 11.910156 L 28 10.5 L 23.720703 6.1894531 L 23 5.5 z M 8.1894531 17 L 7.9707031 17.660156 L 6.0292969 23 L 6 23 L 6 23.060547 L 5.0605469 25.660156 L 5 25.810547 L 5 27 L 7 27 L 7 26.160156 L 7.4101562 25 L 10.589844 25 L 11 26.160156 L 11 27 L 13 27 L 13 25.810547 L 12.939453 25.660156 L 12 23.060547 L 12 23 L 11.970703 23 L 10.029297 17.660156 L 9.8105469 17 L 8.1894531 17 z M 9 20.660156 L 9.8398438 23 L 8.1601562 23 L 9 20.660156 z"/>
</svg>

<svg xmlns="http://www.w3.org/2000/svg" viewBox="0 0 32 32" height="1em" width="1em">
  <path d="M5 5v2h5.56l-5.28 5.28-.28.31V15h8v-2H7.44l5.28-5.28.28-.31V5H5zm18 .5-.72.69L18 10.5l1.41 1.41L22 9.31V28h2V9.31l2.59 2.6L28 10.5l-4.28-4.31L23 5.5zM8.19 17l-.22.66L6.03 23H6v.06l-.94 2.6-.06.15V27h2v-.84L7.41 25h3.18l.41 1.16V27h2v-1.19l-.06-.15-.94-2.6V23h-.03l-1.94-5.34-.22-.66H8.19zM9 20.66 9.84 23H8.16L9 20.66z"/>
</svg>
